DCCircuits/figures/parallel.svg

<?xml version="1.0" encoding="UTF-8" standalone="no"?>
<svg
   xmlns:dc="http://purl.org/dc/elements/1.1/"
   xmlns:cc="http://creativecommons.org/ns#"
   xmlns:rdf="http://www.w3.org/1999/02/22-rdf-syntax-ns#"
   xmlns:svg="http://www.w3.org/2000/svg"
   xmlns="http://www.w3.org/2000/svg"
   xmlns:sodipodi="http://sodipodi.sourceforge.net/DTD/sodipodi-0.dtd"
   xmlns:inkscape="http://www.inkscape.org/namespaces/inkscape"
   version="1.1"
   width="63.939999"
   height="40.810001"
   viewBox="0 0 710.44443 453.44444"
   id="svg2"
   inkscape:version="0.48.1 r9760"
   sodipodi:docname="parallel.svg">
  <metadata
     id="metadata218">
    <rdf:RDF>
      <cc:Work
         rdf:about="">
        <dc:format>image/svg+xml</dc:format>
        <dc:type
           rdf:resource="http://purl.org/dc/dcmitype/StillImage" />
      </cc:Work>
    </rdf:RDF>
  </metadata>
  <defs
     id="defs216" />
  <sodipodi:namedview
     pagecolor="#ffffff"
     bordercolor="#666666"
     borderopacity="1"
     objecttolerance="10"
     gridtolerance="10"
     guidetolerance="10"
     inkscape:pageopacity="0"
     inkscape:pageshadow="2"
     inkscape:window-width="1866"
     inkscape:window-height="1023"
     id="namedview214"
     showgrid="false"
     fit-margin-top="0.2"
     fit-margin-right="0.2"
     fit-margin-bottom="0.2"
     fit-margin-left="0.2"
     inkscape:zoom="8.5761748"
     inkscape:cx="53.55771"
     inkscape:cy="9.5834702"
     inkscape:window-x="0"
     inkscape:window-y="26"
     inkscape:window-maximized="1"
     inkscape:current-layer="svg2" />
  <title
     id="title4">SVG Picture created as parallel.svg </title>
  <desc
     id="desc6">Picture generated by wxSVG v0101 </desc>
  <g
     style="fill:#000000;stroke:#000000;stroke-width:1"
     id="g8"
     transform="translate(-994.77778,-1951.7779)" />
  <g
     style="fill:#00a000;fill-opacity:1;stroke:#00a000;stroke-width:0;stroke-linecap:round;stroke-linejoin:round;stroke-opacity:1"
     id="g10"
     transform="translate(-994.77778,-1951.7779)">
    <ellipse
       cx="1600"
       cy="2150"
       rx="16"
       ry="16"
       id="ellipse12"
       sodipodi:cx="1600"
       sodipodi:cy="2150"
       sodipodi:rx="16"
       sodipodi:ry="16"
       d="m 1616,2150 c 0,8.8366 -7.1634,16 -16,16 -8.8366,0 -16,-7.1634 -16,-16 0,-8.8366 7.1634,-16 16,-16 8.8366,0 16,7.1634 16,16 z" />
  </g>
  <g
     style="fill:#00a000;fill-opacity:1;stroke:#00a000;stroke-width:6;stroke-linecap:round;stroke-linejoin:round;stroke-opacity:1"
     id="g14"
     transform="translate(-994.77778,-1951.7779)">
    <path
       d="m 1600,2150 100,0"
       id="path16"
       inkscape:connector-curvature="0" />
    <path
       d="m 1600,2000 0,300"
       id="path18"
       inkscape:connector-curvature="0" />
    <path
       d="m 1100,2000 0,300"
       id="path20"
       inkscape:connector-curvature="0" />
    <path
       d="m 1100,2150 -100,0"
       id="path22"
       inkscape:connector-curvature="0" />
  </g>
  <g
     style="fill:#00a000;fill-opacity:1;stroke:#00a000;stroke-width:0;stroke-linecap:round;stroke-linejoin:round;stroke-opacity:1"
     id="g24"
     transform="translate(-994.77778,-1951.7779)">
    <ellipse
       cx="1100"
       cy="2150"
       rx="16"
       ry="16"
       id="ellipse26"
       sodipodi:cx="1100"
       sodipodi:cy="2150"
       sodipodi:rx="16"
       sodipodi:ry="16"
       d="m 1116,2150 c 0,8.8366 -7.1634,16 -16,16 -8.8366,0 -16,-7.1634 -16,-16 0,-8.8366 7.1634,-16 16,-16 8.8366,0 16,7.1634 16,16 z" />
  </g>
  <g
     style="fill:#000000;fill-opacity:0;stroke:#a00000;stroke-width:12;stroke-linecap:round;stroke-linejoin:round;stroke-opacity:1"
     id="g28"
     transform="translate(-994.77778,-1951.7779)">
    <polygon
       style="fill-rule:evenodd"
       points="1200,2340 1200,2260 1500,2260 1500,2260 1500,2340 "
       id="polygon30" />
  </g>
  <g
     style="fill:#000000;fill-opacity:0;stroke:#a00000;stroke-width:6;stroke-linecap:round;stroke-linejoin:round;stroke-opacity:1"
     id="g32"
     transform="translate(-994.77778,-1951.7779)">
    <path
       d="m 1500,2300 100,0"
       id="path34"
       inkscape:connector-curvature="0" />
    <path
       d="m 1200,2300 -100,0"
       id="path36"
       inkscape:connector-curvature="0" />
  </g>
  <g
     style="fill:#00a0a0;fill-opacity:0;stroke:#00a0a0;stroke-width:6;stroke-linecap:round;stroke-linejoin:round;stroke-opacity:1"
     id="g38"
     transform="translate(-994.77778,-1951.7779)">
    <path
       d="m 1341,2400 -16,-24"
       id="path40"
       inkscape:connector-curvature="0" />
    <g
       style="stroke-linecap:round"
       id="g42">
      <path
         d="m 1325,2376 0,0"
         id="path44"
         inkscape:connector-curvature="0" />
    </g>
    <path
       d="m 1313,2400 0,-50"
       id="path46"
       inkscape:connector-curvature="0" />
    <path
       d="m 1313,2350 19,0"
       id="path48"
       inkscape:connector-curvature="0" />
    <path
       d="m 1332,2350 5,3"
       id="path50"
       inkscape:connector-curvature="0" />
    <path
       d="m 1337,2353 2,2"
       id="path52"
       inkscape:connector-curvature="0" />
    <path
       d="m 1339,2355 2,5"
       id="path54"
       inkscape:connector-curvature="0" />
    <path
       d="m 1341,2360 0,7"
       id="path56"
       inkscape:connector-curvature="0" />
    <path
       d="m 1341,2367 -2,5"
       id="path58"
       inkscape:connector-curvature="0" />
    <path
       d="m 1339,2372 -2,2"
       id="path60"
       inkscape:connector-curvature="0" />
    <path
       d="m 1337,2374 -5,2"
       id="path62"
       inkscape:connector-curvature="0" />
    <path
       d="m 1332,2376 -19,0"
       id="path64"
       inkscape:connector-curvature="0" />
    <g
       style="stroke-linecap:round"
       id="g66">
      <path
         d="m 1313,2376 0,0"
         id="path68"
         inkscape:connector-curvature="0" />
    </g>
    <path
       d="m 1361,2355 2,-2"
       id="path70"
       inkscape:connector-curvature="0" />
    <path
       d="m 1363,2353 5,-3"
       id="path72"
       inkscape:connector-curvature="0" />
    <path
       d="m 1368,2350 12,0"
       id="path74"
       inkscape:connector-curvature="0" />
    <path
       d="m 1380,2350 4,3"
       id="path76"
       inkscape:connector-curvature="0" />
    <path
       d="m 1384,2353 3,2"
       id="path78"
       inkscape:connector-curvature="0" />
    <path
       d="m 1387,2355 2,5"
       id="path80"
       inkscape:connector-curvature="0" />
    <path
       d="m 1389,2360 0,5"
       id="path82"
       inkscape:connector-curvature="0" />
    <path
       d="m 1389,2365 -2,7"
       id="path84"
       inkscape:connector-curvature="0" />
    <path
       d="m 1387,2372 -29,28"
       id="path86"
       inkscape:connector-curvature="0" />
    <path
       d="m 1358,2400 31,0"
       id="path88"
       inkscape:connector-curvature="0" />
    <g
       style="stroke-linecap:round"
       id="g90">
      <path
         d="m 1389,2400 0,0"
         id="path92"
         inkscape:connector-curvature="0" />
    </g>
    <path
       d="m 1365,2320 -16,-24"
       id="path94"
       inkscape:connector-curvature="0" />
    <g
       style="stroke-linecap:round"
       id="g96">
      <path
         d="m 1349,2296 0,0"
         id="path98"
         inkscape:connector-curvature="0" />
    </g>
    <path
       d="m 1337,2320 0,-50"
       id="path100"
       inkscape:connector-curvature="0" />
    <path
       d="m 1337,2270 19,0"
       id="path102"
       inkscape:connector-curvature="0" />
    <path
       d="m 1356,2270 5,3"
       id="path104"
       inkscape:connector-curvature="0" />
    <path
       d="m 1361,2273 2,2"
       id="path106"
       inkscape:connector-curvature="0" />
    <path
       d="m 1363,2275 2,5"
       id="path108"
       inkscape:connector-curvature="0" />
    <path
       d="m 1365,2280 0,7"
       id="path110"
       inkscape:connector-curvature="0" />
    <path
       d="m 1365,2287 -2,5"
       id="path112"
       inkscape:connector-curvature="0" />
    <path
       d="m 1363,2292 -2,2"
       id="path114"
       inkscape:connector-curvature="0" />
    <path
       d="m 1361,2294 -5,2"
       id="path116"
       inkscape:connector-curvature="0" />
    <path
       d="m 1356,2296 -19,0"
       id="path118"
       inkscape:connector-curvature="0" />
    <g
       style="stroke-linecap:round"
       id="g120">
      <path
         d="m 1337,2296 0,0"
         id="path122"
         inkscape:connector-curvature="0" />
    </g>
  </g>
  <g
     style="fill:#000000;fill-opacity:0;stroke:#a00000;stroke-width:12;stroke-linecap:round;stroke-linejoin:round;stroke-opacity:1"
     id="g124"
     transform="translate(-994.77778,-1951.7779)">
    <polygon
       style="fill-rule:evenodd"
       points="1200,2040 1200,1960 1500,1960 1500,1960 1500,2040 "
       id="polygon126" />
  </g>
  <g
     style="fill:#000000;fill-opacity:0;stroke:#a00000;stroke-width:6;stroke-linecap:round;stroke-linejoin:round;stroke-opacity:1"
     id="g128"
     transform="translate(-994.77778,-1951.7779)">
    <path
       d="m 1500,2000 100,0"
       id="path130"
       inkscape:connector-curvature="0" />
    <path
       d="m 1200,2000 -100,0"
       id="path132"
       inkscape:connector-curvature="0" />
  </g>
  <g
     style="fill:#00a0a0;fill-opacity:0;stroke:#00a0a0;stroke-width:6;stroke-linecap:round;stroke-linejoin:round;stroke-opacity:1"
     id="g134"
     transform="translate(-994.77778,-1951.7779)">
    <path
       d="m 1341,2100 -16,-24"
       id="path136"
       inkscape:connector-curvature="0" />
    <g
       style="stroke-linecap:round"
       id="g138">
      <path
         d="m 1325,2076 0,0"
         id="path140"
         inkscape:connector-curvature="0" />
    </g>
    <path
       d="m 1313,2100 0,-50"
       id="path142"
       inkscape:connector-curvature="0" />
    <path
       d="m 1313,2050 19,0"
       id="path144"
       inkscape:connector-curvature="0" />
    <path
       d="m 1332,2050 5,3"
       id="path146"
       inkscape:connector-curvature="0" />
    <path
       d="m 1337,2053 2,2"
       id="path148"
       inkscape:connector-curvature="0" />
    <path
       d="m 1339,2055 2,5"
       id="path150"
       inkscape:connector-curvature="0" />
    <path
       d="m 1341,2060 0,7"
       id="path152"
       inkscape:connector-curvature="0" />
    <path
       d="m 1341,2067 -2,5"
       id="path154"
       inkscape:connector-curvature="0" />
    <path
       d="m 1339,2072 -2,2"
       id="path156"
       inkscape:connector-curvature="0" />
    <path
       d="m 1337,2074 -5,2"
       id="path158"
       inkscape:connector-curvature="0" />
    <path
       d="m 1332,2076 -19,0"
       id="path160"
       inkscape:connector-curvature="0" />
    <g
       style="stroke-linecap:round"
       id="g162">
      <path
         d="m 1313,2076 0,0"
         id="path164"
         inkscape:connector-curvature="0" />
    </g>
    <path
       d="m 1389,2100 -28,0"
       id="path166"
       inkscape:connector-curvature="0" />
    <g
       style="stroke-linecap:round"
       id="g168">
      <path
         d="m 1361,2100 0,0"
         id="path170"
         inkscape:connector-curvature="0" />
    </g>
    <path
       d="m 1375,2100 0,-50"
       id="path172"
       inkscape:connector-curvature="0" />
    <path
       d="m 1375,2050 -5,7"
       id="path174"
       inkscape:connector-curvature="0" />
    <path
       d="m 1370,2057 -5,5"
       id="path176"
       inkscape:connector-curvature="0" />
    <path
       d="m 1365,2062 -4,3"
       id="path178"
       inkscape:connector-curvature="0" />
    <g
       style="stroke-linecap:round"
       id="g180">
      <path
         d="m 1361,2065 0,0"
         id="path182"
         inkscape:connector-curvature="0" />
    </g>
    <path
       d="m 1365,2020 -16,-24"
       id="path184"
       inkscape:connector-curvature="0" />
    <g
       style="stroke-linecap:round"
       id="g186">
      <path
         d="m 1349,1996 0,0"
         id="path188"
         inkscape:connector-curvature="0" />
    </g>
    <path
       d="m 1337,2020 0,-50"
       id="path190"
       inkscape:connector-curvature="0" />
    <path
       d="m 1337,1970 19,0"
       id="path192"
       inkscape:connector-curvature="0" />
    <path
       d="m 1356,1970 5,3"
       id="path194"
       inkscape:connector-curvature="0" />
    <path
       d="m 1361,1973 2,2"
       id="path196"
       inkscape:connector-curvature="0" />
    <path
       d="m 1363,1975 2,5"
       id="path198"
       inkscape:connector-curvature="0" />
    <path
       d="m 1365,1980 0,7"
       id="path200"
       inkscape:connector-curvature="0" />
    <path
       d="m 1365,1987 -2,5"
       id="path202"
       inkscape:connector-curvature="0" />
    <path
       d="m 1363,1992 -2,2"
       id="path204"
       inkscape:connector-curvature="0" />
    <path
       d="m 1361,1994 -5,2"
       id="path206"
       inkscape:connector-curvature="0" />
    <path
       d="m 1356,1996 -19,0"
       id="path208"
       inkscape:connector-curvature="0" />
    <g
       style="stroke-linecap:round"
       id="g210">
      <path
         d="m 1337,1996 0,0"
         id="path212"
         inkscape:connector-curvature="0" />
    </g>
  </g>
</svg>

<?xml version="1.0" standalone="no"?>
<!DOCTYPE svg PUBLIC "-//W3C//DTD SVG 1.1//EN" 
"http://www.w3.org/Graphics/SVG/1.1/DTD/svg11.dtd"> 
<svg
  xmlns="http://www.w3.org/2000/svg"
  version="1.1"
  width="11.7in" height="8.267in" viewBox="0 0 11700 8267 "
>
  <title>SVG Picture created as parallel.svg </title>
  <desc>Picture generated by wxSVG v0101 </desc>
  <g style="fill:black; stroke:black; stroke-width:1">
</g>
<g style="fill:#00A000; fill-opacity:1.0; 
  stroke:#00A000; stroke-linecap:round; stroke-linejoin:round; stroke-opacity:1.0; stroke-opacity:1.0; stroke-width:0" 
   transform="translate(0 0) scale(1 1)">
<ellipse cx="1600" cy="2150" rx="16" ry="16"  /> 
</g>
<g style="fill:#00A000; fill-opacity:1.0; 
  stroke:#00A000; stroke-linecap:round; stroke-linejoin:round; stroke-opacity:1.0; stroke-opacity:1.0; stroke-width:6" 
   transform="translate(0 0) scale(1 1)">
<path d="M1600 2150 L1700 2150" /> 
<path d="M1600 2000 L1600 2300" /> 
<path d="M1100 2000 L1100 2300" /> 
<path d="M1100 2150 L1000 2150" /> 
</g>
<g style="fill:#00A000; fill-opacity:1.0; 
  stroke:#00A000; stroke-linecap:round; stroke-linejoin:round; stroke-opacity:1.0; stroke-opacity:1.0; stroke-width:0" 
   transform="translate(0 0) scale(1 1)">
<ellipse cx="1100" cy="2150" rx="16" ry="16"  /> 
</g>
<g style="fill:#000000; fill-opacity:0.0; 
  stroke:#A00000; stroke-linecap:round; stroke-linejoin:round; stroke-opacity:1.0; stroke-opacity:1.0; stroke-width:12" 
   transform="translate(0 0) scale(1 1)">
<polygon style="fill-rule:evenodd; " 
points="1500,2260
1500,2260
1500,2340
1200,2340
1200,2260
" /> 
</g>
<g style="fill:#000000; fill-opacity:0.0; 
  stroke:#A00000; stroke-linecap:round; stroke-linejoin:round; stroke-opacity:1.0; stroke-opacity:1.0; stroke-width:6" 
   transform="translate(0 0) scale(1 1)">
<path d="M1500 2300 L1600 2300" /> 
<path d="M1200 2300 L1100 2300" /> 
</g>
<g style="fill:#00A0A0; fill-opacity:0.0; 
  stroke:#00A0A0; stroke-linecap:round; stroke-linejoin:round; stroke-opacity:1.0; stroke-opacity:1.0; stroke-width:6" 
   transform="translate(0 0) scale(1 1)">
<path d="M1341 2400 L1325 2376" /> 
<g style = "stroke-linecap:round;" > 
<path d="M1325 2376 L1325 2376" /> 
</g><path d="M1313 2400 L1313 2350" /> 
<path d="M1313 2350 L1332 2350" /> 
<path d="M1332 2350 L1337 2353" /> 
<path d="M1337 2353 L1339 2355" /> 
<path d="M1339 2355 L1341 2360" /> 
<path d="M1341 2360 L1341 2367" /> 
<path d="M1341 2367 L1339 2372" /> 
<path d="M1339 2372 L1337 2374" /> 
<path d="M1337 2374 L1332 2376" /> 
<path d="M1332 2376 L1313 2376" /> 
<g style = "stroke-linecap:round;" > 
<path d="M1313 2376 L1313 2376" /> 
</g><path d="M1361 2355 L1363 2353" /> 
<path d="M1363 2353 L1368 2350" /> 
<path d="M1368 2350 L1380 2350" /> 
<path d="M1380 2350 L1384 2353" /> 
<path d="M1384 2353 L1387 2355" /> 
<path d="M1387 2355 L1389 2360" /> 
<path d="M1389 2360 L1389 2365" /> 
<path d="M1389 2365 L1387 2372" /> 
<path d="M1387 2372 L1358 2400" /> 
<path d="M1358 2400 L1389 2400" /> 
<g style = "stroke-linecap:round;" > 
<path d="M1389 2400 L1389 2400" /> 
</g><path d="M1365 2320 L1349 2296" /> 
<g style = "stroke-linecap:round;" > 
<path d="M1349 2296 L1349 2296" /> 
</g><path d="M1337 2320 L1337 2270" /> 
<path d="M1337 2270 L1356 2270" /> 
<path d="M1356 2270 L1361 2273" /> 
<path d="M1361 2273 L1363 2275" /> 
<path d="M1363 2275 L1365 2280" /> 
<path d="M1365 2280 L1365 2287" /> 
<path d="M1365 2287 L1363 2292" /> 
<path d="M1363 2292 L1361 2294" /> 
<path d="M1361 2294 L1356 2296" /> 
<path d="M1356 2296 L1337 2296" /> 
<g style = "stroke-linecap:round;" > 
<path d="M1337 2296 L1337 2296" /> 
</g></g>
<g style="fill:#000000; fill-opacity:0.0; 
  stroke:#A00000; stroke-linecap:round; stroke-linejoin:round; stroke-opacity:1.0; stroke-opacity:1.0; stroke-width:12" 
   transform="translate(0 0) scale(1 1)">
<polygon style="fill-rule:evenodd; " 
points="1500,1960
1500,1960
1500,2040
1200,2040
1200,1960
" /> 
</g>
<g style="fill:#000000; fill-opacity:0.0; 
  stroke:#A00000; stroke-linecap:round; stroke-linejoin:round; stroke-opacity:1.0; stroke-opacity:1.0; stroke-width:6" 
   transform="translate(0 0) scale(1 1)">
<path d="M1500 2000 L1600 2000" /> 
<path d="M1200 2000 L1100 2000" /> 
</g>
<g style="fill:#00A0A0; fill-opacity:0.0; 
  stroke:#00A0A0; stroke-linecap:round; stroke-linejoin:round; stroke-opacity:1.0; stroke-opacity:1.0; stroke-width:6" 
   transform="translate(0 0) scale(1 1)">
<path d="M1341 2100 L1325 2076" /> 
<g style = "stroke-linecap:round;" > 
<path d="M1325 2076 L1325 2076" /> 
</g><path d="M1313 2100 L1313 2050" /> 
<path d="M1313 2050 L1332 2050" /> 
<path d="M1332 2050 L1337 2053" /> 
<path d="M1337 2053 L1339 2055" /> 
<path d="M1339 2055 L1341 2060" /> 
<path d="M1341 2060 L1341 2067" /> 
<path d="M1341 2067 L1339 2072" /> 
<path d="M1339 2072 L1337 2074" /> 
<path d="M1337 2074 L1332 2076" /> 
<path d="M1332 2076 L1313 2076" /> 
<g style = "stroke-linecap:round;" > 
<path d="M1313 2076 L1313 2076" /> 
</g><path d="M1389 2100 L1361 2100" /> 
<g style = "stroke-linecap:round;" > 
<path d="M1361 2100 L1361 2100" /> 
</g><path d="M1375 2100 L1375 2050" /> 
<path d="M1375 2050 L1370 2057" /> 
<path d="M1370 2057 L1365 2062" /> 
<path d="M1365 2062 L1361 2065" /> 
<g style = "stroke-linecap:round;" > 
<path d="M1361 2065 L1361 2065" /> 
</g><path d="M1365 2020 L1349 1996" /> 
<g style = "stroke-linecap:round;" > 
<path d="M1349 1996 L1349 1996" /> 
</g><path d="M1337 2020 L1337 1970" /> 
<path d="M1337 1970 L1356 1970" /> 
<path d="M1356 1970 L1361 1973" /> 
<path d="M1361 1973 L1363 1975" /> 
<path d="M1363 1975 L1365 1980" /> 
<path d="M1365 1980 L1365 1987" /> 
<path d="M1365 1987 L1363 1992" /> 
<path d="M1363 1992 L1361 1994" /> 
<path d="M1361 1994 L1356 1996" /> 
<path d="M1356 1996 L1337 1996" /> 
<g style = "stroke-linecap:round;" > 
<path d="M1337 1996 L1337 1996" /> 
</g></g> 
</svg>
